X:6237
T:Gigue Canadienne
C:Joseph Allard
M:2/4
L:1/16
K:G
dc|B2GB cAFA|d^cde dBGB|DFAB cBcB|AGFE DB,DG|!
B2B2 cBce|dBge dBGB|DFAB cAFG|A2G2 G2:|!
|:ga|bgfg dega|bgfg dega|ba^ga ea^ga|ba^ga ef=ga|!
bgfg dega|bgfg defg|(3aba (3gag (3fgf (3efe|defe g2:|!
